source/work/images/artifact_personas.svg

<svg xmlns="http://www.w3.org/2000/svg" width="64" height="64" viewBox="0 0 64 64"><style type="text/css">.frame{fill:#FFFFFF;} .content{opacity:0.5;fill:#FFFFFF;}</style><path class="frame" d="M60 4h-56c-1.657 0-3 1.343-3 3v49.9c0 1.657 1.343 3 3 3h56c1.657 0 3-1.343 3-3v-49.9c0-1.657-1.343-3-3-3zm-58 3c0-1.103.897-2 2-2h56c1.103 0 2 .897 2 2v43.9c0 1.103-.897 2-2 2h-56c-1.103 0-2-.897-2-2v-43.9zm0 46.121c.532.479 1.228.779 2 .779h56c.772 0 1.468-.3 2-.779v.779c0 1.103-.897 2-2 2h-56c-1.103 0-2-.897-2-2v-.779zm58 5.779h-56c-1.103 0-2-.897-2-2v-.779c.532.479 1.228.779 2 .779h56c.772 0 1.468-.3 2-.779v.779c0 1.103-.897 2-2 2z"/><path class="content" d="M55.5 16h-32c-.276 0-.5-.224-.5-.5s.224-.5.5-.5h32c.276 0 .5.224.5.5s-.224.5-.5.5zm0-3h-32c-.276 0-.5-.224-.5-.5s.224-.5.5-.5h32c.276 0 .5.224.5.5s-.224.5-.5.5zm.5 5.5c0-.276-.224-.5-.5-.5h-32c-.276 0-.5.224-.5.5s.224.5.5.5h32c.276 0 .5-.224.5-.5zm0 3c0-.276-.224-.5-.5-.5h-32c-.276 0-.5.224-.5.5s.224.5.5.5h32c.276 0 .5-.224.5-.5zm0 3c0-.276-.224-.5-.5-.5h-32c-.276 0-.5.224-.5.5s.224.5.5.5h32c.276 0 .5-.224.5-.5zm0 3c0-.276-.224-.5-.5-.5h-32c-.276 0-.5.224-.5.5s.224.5.5.5h32c.276 0 .5-.224.5-.5zm0 3c0-.276-.224-.5-.5-.5h-32c-.276 0-.5.224-.5.5s.224.5.5.5h32c.276 0 .5-.224.5-.5zm0 3c0-.276-.224-.5-.5-.5h-32c-.276 0-.5.224-.5.5s.224.5.5.5h32c.276 0 .5-.224.5-.5zm0 3c0-.276-.224-.5-.5-.5h-32c-.276 0-.5.224-.5.5s.224.5.5.5h32c.276 0 .5-.224.5-.5zm0 3c0-.276-.224-.5-.5-.5h-32c-.276 0-.5.224-.5.5s.224.5.5.5h32c.276 0 .5-.224.5-.5zm0 3c0-.276-.224-.5-.5-.5h-32c-.276 0-.5.224-.5.5s.224.5.5.5h32c.276 0 .5-.224.5-.5zm-7 3c0-.276-.224-.5-.5-.5h-25c-.276 0-.5.224-.5.5s.224.5.5.5h25c.276 0 .5-.224.5-.5zm-30-22.894v3.394c0 1.105-.895 2-2 2h-8c-1.105 0-2-.895-2-2v-3.394c0-1.003.501-1.94 1.336-2.496l1.874-1.249c-.745-.727-1.21-1.739-1.21-2.861 0-2.209 1.791-4 4-4s4 1.791 4 4c0 1.122-.465 2.134-1.21 2.86l1.874 1.249c.835.557 1.336 1.493 1.336 2.497zm-6-3.606c1.654 0 3-1.346 3-3s-1.346-3-3-3-3 1.346-3 3 1.346 3 3 3zm5 3.606c0-.67-.333-1.292-.891-1.664l-2.184-1.456c-.573.317-1.223.514-1.925.514s-1.352-.197-1.926-.514l-2.184 1.456c-.557.371-.89.993-.89 1.664v3.394c0 .551.449 1 1 1h8c.551 0 1-.449 1-1v-3.394z"/></svg>

<?xml version="1.0" encoding="utf-8"?>
<!-- Generator: Adobe Illustrator 19.2.1, SVG Export Plug-In . SVG Version: 6.00 Build 0)  -->
<svg version="1.1" id="icons" xmlns="http://www.w3.org/2000/svg" xmlns:xlink="http://www.w3.org/1999/xlink" x="0px" y="0px"
	 width="64px" height="64px" viewBox="0 0 64 64" style="enable-background:new 0 0 64 64;" xml:space="preserve">
<style type="text/css">
	.frame{fill:#FFFFFF;}
	.content{opacity:0.5;fill:#FFFFFF;}
</style>
<path class="frame" d="M60,4H4C2.343,4,1,5.343,1,7v43.375V50.9v2.475V53.9v3c0,1.657,1.343,3,3,3h56c1.657,0,3-1.343,3-3v-3v-0.525
	V50.9v-0.525V7C63,5.343,61.657,4,60,4z M2,7c0-1.103,0.897-2,2-2h56c1.103,0,2,0.897,2,2v43.9c0,1.103-0.897,2-2,2H4
	c-1.103,0-2-0.897-2-2V7z M2,53.121C2.532,53.6,3.228,53.9,4,53.9h56c0.772,0,1.468-0.3,2-0.779V53.9c0,1.103-0.897,2-2,2H4
	c-1.103,0-2-0.897-2-2V53.121z M60,58.9H4c-1.103,0-2-0.897-2-2v-0.779C2.532,56.6,3.228,56.9,4,56.9h56c0.772,0,1.468-0.3,2-0.779
	V56.9C62,58.003,61.103,58.9,60,58.9z"/>
<path class="content" d="M55.5,16h-32c-0.276,0-0.5-0.224-0.5-0.5s0.224-0.5,0.5-0.5h32c0.276,0,0.5,0.224,0.5,0.5
	S55.776,16,55.5,16z M55.5,13h-32c-0.276,0-0.5-0.224-0.5-0.5s0.224-0.5,0.5-0.5h32c0.276,0,0.5,0.224,0.5,0.5S55.776,13,55.5,13z
	 M56,18.5c0-0.276-0.224-0.5-0.5-0.5h-32c-0.276,0-0.5,0.224-0.5,0.5s0.224,0.5,0.5,0.5h32C55.776,19,56,18.776,56,18.5z M56,21.5
	c0-0.276-0.224-0.5-0.5-0.5h-32c-0.276,0-0.5,0.224-0.5,0.5s0.224,0.5,0.5,0.5h32C55.776,22,56,21.776,56,21.5z M56,24.5
	c0-0.276-0.224-0.5-0.5-0.5h-32c-0.276,0-0.5,0.224-0.5,0.5s0.224,0.5,0.5,0.5h32C55.776,25,56,24.776,56,24.5z M56,27.5
	c0-0.276-0.224-0.5-0.5-0.5h-32c-0.276,0-0.5,0.224-0.5,0.5s0.224,0.5,0.5,0.5h32C55.776,28,56,27.776,56,27.5z M56,30.5
	c0-0.276-0.224-0.5-0.5-0.5h-32c-0.276,0-0.5,0.224-0.5,0.5s0.224,0.5,0.5,0.5h32C55.776,31,56,30.776,56,30.5z M56,33.5
	c0-0.276-0.224-0.5-0.5-0.5h-32c-0.276,0-0.5,0.224-0.5,0.5s0.224,0.5,0.5,0.5h32C55.776,34,56,33.776,56,33.5z M56,36.5
	c0-0.276-0.224-0.5-0.5-0.5h-32c-0.276,0-0.5,0.224-0.5,0.5s0.224,0.5,0.5,0.5h32C55.776,37,56,36.776,56,36.5z M56,39.5
	c0-0.276-0.224-0.5-0.5-0.5h-32c-0.276,0-0.5,0.224-0.5,0.5s0.224,0.5,0.5,0.5h32C55.776,40,56,39.776,56,39.5z M56,42.5
	c0-0.276-0.224-0.5-0.5-0.5h-32c-0.276,0-0.5,0.224-0.5,0.5s0.224,0.5,0.5,0.5h32C55.776,43,56,42.776,56,42.5z M49,45.5
	c0-0.276-0.224-0.5-0.5-0.5h-25c-0.276,0-0.5,0.224-0.5,0.5s0.224,0.5,0.5,0.5h25C48.776,46,49,45.776,49,45.5z M19,22.606V26
	c0,1.105-0.895,2-2,2H9c-1.105,0-2-0.895-2-2v-3.394c0-1.003,0.501-1.94,1.336-2.496l1.874-1.249C9.465,18.134,9,17.122,9,16
	c0-2.209,1.791-4,4-4c2.209,0,4,1.791,4,4c0,1.122-0.465,2.134-1.21,2.86l1.874,1.249C18.499,20.666,19,21.602,19,22.606z M13,19
	c1.654,0,3-1.346,3-3c0-1.654-1.346-3-3-3c-1.654,0-3,1.346-3,3C10,17.654,11.346,19,13,19z M18,22.606
	c0-0.67-0.333-1.292-0.891-1.664l-2.184-1.456C14.352,19.803,13.702,20,13,20s-1.352-0.197-1.926-0.514l-2.184,1.456
	C8.333,21.313,8,21.935,8,22.606V26c0,0.551,0.449,1,1,1h8c0.551,0,1-0.449,1-1V22.606z"/>
</svg>
